!!!OTL: Faschingslied.
!!!OTL-incipit: RAU RAU ROMMELSDOEPPEN
!!!ARE: Europa, Mitteleuropa, Deutschland, Niederrhein
!!!SCT: Z1276
!!!YEM: Copyright 1995, estate of Helmut Schaffrath.
**kern	**text
*ICvox	*
*M2/4	*
*k[]	*
*a:	*
=1	=1
!LO:TX:a:t=Vom Niederrhein.	!
{(8aL	Rau,
8g#J)	.
(8aL	rau,
8g#J)	.
=2	=2
8a	Rommels-
8e	.
8e	-döppen,
8e}	.
=3	=3
{8a	morgen
8g#	.
8a	gelt
8g#	et'em
=4	=4
8a	Rei-
8e	-gen
8e	höp-
8e}	-pen!
=5	=5
{8f#	drop
8g#	un
4a	dran,
=6	=6
8f#	Jon-
8g#	-gen,
!LO:SIC:v:t=b	!
4a}	dran!
=7	=7
{8cc	Fa-
8b	-ſtel-
8a	-o-
8g#	-fend
=8	=8
8e	kütt
8g#	e-
4a}	-ran!
=9	=9
{8f#	drop
8g#	un
!LO:SIC:v:t=b	!
4a	dran,
=10	=10
8f#	Jon-
8g#	-gen,
4b}	dran!
=11	=11
{8cc	Fa-
8b	-ſtel-
8a	-o-
8cc	-fend
=12	=12
8b/	kütt
8g#	e-
4a}	-ran!
==	==
!!!AGN: Natur und Welt, Brauchtums - Lied, Fastnahct
!!!ONB: ESAC (Essen Associative Code) Database: ZUCCAL
!!!AMT: simple duple
!!!AIN: vox
!!!EED: Helmut Schaffrath
!!!EEV: 1.0
!!!GTL: VI. Natur und Welt.
!!!URL-scan: https://www.digitale-sammlungen.de/de/view/bsb11160573?page=507
!!!ENC: Anna Maria Matuszewska
!!!EEV: 2025/02/06
*-	*-
